X: 8616
T: Cronin's Rambles
R: hornpipe
M: 4/4
K: Gmajor
|:D>F|G2 G>A B>GA>B|c>Bc>e d2 (3def|g2 (3Bcd c>e (3edc|B>GA>F D>EF>D|
G>DG>A B2 (3GAB|c2 (3cde d>^c (3def|g>dB>d c>A (3FGA|G2 G2 G2:|
D2|G>Bd>B g>dB>G|f>ec>A E2 (3DEF|G>d (3Bcd c>Ad>c|B>G (3AGF D>EF>A|
G2 (3def g>dB>d|f>ec>e d2 (3def|g>dB>d c>AF>A|G2 G>F G2 (3def|
g>Bd>G g>d (3Bcd|(3fgf (3ecA E2- E>e|d>g (3Bcd c>AE>F|G2 (3AGF D4|
G2 (3FGA B>GA>G|c2- c>e d2- d>f|g>dG>d c>A (3DFA|G2 g2 G2||

